src/standard/scale-shrinking.svg

<svg xmlns="http://www.w3.org/2000/svg" viewBox="0 0 36 36">
  <path d="M31 23.38a.62.62 0 0 0-.62.62v5.49L16.62 15.74V5a.62.62 0 0 0-.62-.62H5a.62.62 0 0 0-.62.62v11a.62.62 0 0 0 .62.62h10.74l13.75 13.76H24a.62.62 0 0 0 0 1.24h7a.62.62 0 0 0 .41-.16.65.65 0 0 0 .22-.46v-7a.62.62 0 0 0-.63-.62Zm-15.62-8H5.62V5.62h9.76Zm4.62 15H6.62V19a.62.62 0 0 0-1.24 0v12a.62.62 0 0 0 .62.62h14a.62.62 0 0 0 0-1.24Zm11-25H19a.62.62 0 0 0 0 1.24h11.38V20a.62.62 0 0 0 1.24 0V6a.62.62 0 0 0-.62-.62Z"/>
</svg>

<svg id="e83c941d-ef92-43df-a1fe-10dbac690fad" data-name="Icon" xmlns="http://www.w3.org/2000/svg" viewBox="0 0 36 36">
  <title>Scale down icon - Black</title>
<desc>lessen, loss, shrink, decrease, down, reduce, reduction, lower, diagrams and graphs</desc>
<metadata><?xpacket begin="﻿" id="W5M0MpCehiHzreSzNTczkc9d"?>
<x:xmpmeta xmlns:x="adobe:ns:meta/" x:xmptk="Adobe XMP Core 8.0-c001 1.000000, 0000/00/00-00:00:00        ">
   <rdf:RDF xmlns:rdf="http://www.w3.org/1999/02/22-rdf-syntax-ns#">
      <rdf:Description rdf:about=""
            xmlns:xmp="http://ns.adobe.com/xap/1.0/"
            xmlns:dc="http://purl.org/dc/elements/1.1/"
            xmlns:cq="http://www.day.com/jcr/cq/1.0"
            xmlns:tiff="http://ns.adobe.com/tiff/1.0/">
         <xmp:rhcc-effective-on>2023-12-08T17:35:14.220Z</xmp:rhcc-effective-on>
         <xmp:rhcc-metadata-complete-moderator>pending</xmp:rhcc-metadata-complete-moderator>
         <xmp:rhcc-translation-id>TRA7cdd03e0-f9ae-45d0-b73d-c87a7ab391c2</xmp:rhcc-translation-id>
         <xmp:brand-content-type>Icon</xmp:brand-content-type>
         <xmp:CreateDate>2023-12-08T17:35:14.220Z</xmp:CreateDate>
         <xmp:rhcc-effective-on-set-on-upload>true</xmp:rhcc-effective-on-set-on-upload>
         <xmp:rhcc-metadata-complete-uploader>pending</xmp:rhcc-metadata-complete-uploader>
         <xmp:rhcc-file-last-modified>2023-12-08T17:35:25.950Z</xmp:rhcc-file-last-modified>
         <xmp:rhcc-audience>rhcc-audience:internal</xmp:rhcc-audience>
         <xmp:rhcc-rights-restricted>no</xmp:rhcc-rights-restricted>
         <xmp:brand-content-subtype>Icon</xmp:brand-content-subtype>
         <xmp:rhcc-derivative-id>DER7cdd03e0-f9ae-45d0-b73d-c87a7ab391c2</xmp:rhcc-derivative-id>
         <xmp:brand-logo-color>Black</xmp:brand-logo-color>
         <xmp:rhcc-notify-portal-subscribers-on-change>yes</xmp:rhcc-notify-portal-subscribers-on-change>
         <dc:format>image/svg+xml</dc:format>
         <dc:modified>2024-02-09T20:35:31.546Z</dc:modified>
         <dc:title>
            <rdf:Alt>
               <rdf:li xml:lang="x-default">Scale down icon - Black</rdf:li>
            </rdf:Alt>
         </dc:title>
         <dc:description>
            <rdf:Alt>
               <rdf:li xml:lang="x-default">lessen, loss, shrink, decrease, down, reduce, reduction, lower, diagrams and graphs</rdf:li>
            </rdf:Alt>
         </dc:description>
         <cq:lastReplicationAction_scene7>Activate</cq:lastReplicationAction_scene7>
         <cq:lastReplicationAction_publish>Activate</cq:lastReplicationAction_publish>
         <cq:lastReplicated_publish>2024-02-09T22:23:05.152Z</cq:lastReplicated_publish>
         <cq:lastReplicatedBy>workflow-process-service</cq:lastReplicatedBy>
         <cq:lastReplicationAction>Activate</cq:lastReplicationAction>
         <cq:lastReplicatedBy_publish>workflow-process-service</cq:lastReplicatedBy_publish>
         <cq:isDelivered>true</cq:isDelivered>
         <cq:lastReplicated>2024-02-09T22:23:05.152Z</cq:lastReplicated>
         <cq:lastReplicatedBy_scene7>workflow-process-service</cq:lastReplicatedBy_scene7>
         <cq:lastReplicated_scene7>2024-02-09T22:23:05.152Z</cq:lastReplicated_scene7>
         <tiff:ImageLength>36</tiff:ImageLength>
         <tiff:ImageWidth>36</tiff:ImageWidth>
      </rdf:Description>
   </rdf:RDF>
</x:xmpmeta>
                                                                                                    
                                                                                                    
                                                                                                    
                                                                                                    
                                                                                                    
                                                                                                    
                                                                                                    
                                                                                                    
                                                                                                    
                                                                                                    
                                 
<?xpacket end="w"?></metadata>
<g>
    <path d="M31,23.38a.62.62,0,0,0-.62.62v5.49L16.62,15.74V5A.62.62,0,0,0,16,4.38H5A.62.62,0,0,0,4.38,5V16a.62.62,0,0,0,.62.62H15.74L29.49,30.38H24a.62.62,0,0,0,0,1.24h7a.62.62,0,0,0,.41-.16.65.65,0,0,0,.22-.46V24A.62.62,0,0,0,31,23.38Zm-15.62-8H5.62V5.62h9.76Z"/>
    <path d="M20,30.38H6.62V19a.62.62,0,0,0-1.24,0V31a.62.62,0,0,0,.62.62H20A.62.62,0,0,0,20,30.38Z"/>
    <path d="M31,5.38H19a.62.62,0,0,0,0,1.24H30.38V20a.62.62,0,0,0,1.24,0V6A.62.62,0,0,0,31,5.38Z"/>
  </g>
</svg>
